svg/fluentui-system-icons/ic_fluent_star_three_quarter_20_filled.svg

<svg width="20" height="20" viewBox="0 0 20 20" fill="none" xmlns="http://www.w3.org/2000/svg">
<path d="M12 5.13253L10.8978 2.89923C10.531 2.15599 9.47114 2.15598 9.10433 2.89923L7.17389 6.81073L2.8573 7.43797C2.03708 7.55715 1.70956 8.56512 2.30308 9.14366L5.4266 12.1883L4.68924 16.4875C4.54913 17.3044 5.40655 17.9274 6.14018 17.5417L10.0011 15.5119L12 16.5628V5.13253Z" fill="#212121"/>
</svg>

<svg xmlns="http://www.w3.org/2000/svg" width="20" height="20"><path d="m12 5.133-1.102-2.234a1 1 0 0 0-1.794 0l-1.93 3.912-4.317.627a1 1 0 0 0-.554 1.706l3.124 3.044-.738 4.3a1 1 0 0 0 1.451 1.054l3.861-2.03L12 16.562V5.133Z"/></svg>
